X: 722
T: Lady on the Green
B: jims roots
M:2/4
L:1/8
R: Reel
Q: 1/4=100
K:A
V:1 
%Bob Walters (Burt County, Nebraska, 1950)
%Christeson &#8211; Old Time Fiddler's Repertory, vol. 1 (1973, No. 4)
FG | "A"A2A2 E2E2 | CDEC E2E2 | "D"[B,2D2][B,2D2] D2D2 | "A"CDEC E2E2 |
"A"A2A2 E2E2 | CDEC E2E2 | ABcd efed | [1 "E"cABA "A"cA:| [2 "E"cABA "A"cA A2||
|:"A"ce2f e2cd | efed cAcA | "E"Bd2e d2Bc | dedB GABG |
"A"ABcd ea2b | agec deed | cBAc "E"BAGB |[1 "A"A2Ac :|[2 "A"A2Ac A4 x2:|
% abcbook-tune_id 6298c25d942482d5e80f906e


% abcbook-boost 0
% abcbook-tablature 
% abcbook-transpose 
% abcbook-lastupdated 1654178399581
% abcbook-soundfonts 
% abcbook-repeats 1


